static/assets/images/networks/velas.svg

<svg xmlns="http://www.w3.org/2000/svg" fill="none" viewBox="0 0 256 256"><path fill="#0037C1" d="M128 256c70.692 0 128-57.308 128-128S198.692 0 128 0 0 57.308 0 128s57.308 128 128 128"/><path fill="#fff" d="m163.022 136.43-34.766 60.726L93.49 135.99h69.532zm34.766-20.682H58.724l69.532 122.332zM35.84 75.264l11.442 20.242H208.79l11.882-20.242z"/></svg>

<svg width="256" height="256" viewBox="0 0 256 256" fill="none" xmlns="http://www.w3.org/2000/svg">
<path d="M128 256C198.692 256 256 198.692 256 128C256 57.3075 198.692 0 128 0C57.3075 0 0 57.3075 0 128C0 198.692 57.3075 256 128 256Z" fill="#0037C1"/>
<path d="M163.022 136.43L128.256 197.156L93.49 135.99H163.022V136.43ZM197.788 115.748H58.724L128.256 238.08L197.788 115.748ZM35.84 75.264L47.282 95.506H208.79L220.672 75.264H35.84Z" fill="white"/>
</svg>
